packages/foundations/assets/icons/functional/images/file/image_24_filled.svg

<svg xmlns="http://www.w3.org/2000/svg" width="20" height="20" fill="none"><path fill="#1A1C1F" fill-rule="evenodd" d="M4.617 3.05c-.685.152-1.257.667-1.526 1.372l-.074.195-.01 5.266c-.01 5.866-.023 5.509.218 5.991.083.166.198.318.372.494.273.275.454.395.799.529l.221.086 5.297.009c5.875.01 5.462.025 5.948-.213.293-.143.668-.485.834-.759.062-.103.152-.288.2-.412l.087-.225V4.617l-.087-.225a2.05 2.05 0 0 0-.551-.822 1.9 1.9 0 0 0-.898-.504c-.251-.064-.384-.066-5.444-.063-4.196.002-5.225.011-5.386.047M15 7.79v2.79l-.725-.718c-.816-.809-.872-.845-1.292-.845-.415 0-.432.013-1.929 1.511l-1.328 1.33-1.288-.431c-1.642-.549-1.416-.551-2.563.02-.464.231-.851.42-.86.42-.008 0-.015-1.545-.015-3.434V5h10zM7.15 6.046c-.399.098-.815.423-.983.77q-.328.682.003 1.375c.098.204.435.541.639.639.621.298 1.27.195 1.743-.278.579-.579.598-1.46.045-2.065a1.52 1.52 0 0 0-1.447-.441"/></svg>

<svg width="20" height="20" viewBox="0 0 20 20" fill="none" xmlns="http://www.w3.org/2000/svg"><path d="M4.617 3.050 C 3.932 3.202,3.360 3.717,3.091 4.422 L 3.017 4.617 3.007 9.883 C 2.997 15.749,2.984 15.392,3.225 15.874 C 3.308 16.040,3.423 16.192,3.597 16.368 C 3.870 16.643,4.051 16.763,4.396 16.897 L 4.617 16.983 9.914 16.992 C 15.789 17.002,15.376 17.017,15.862 16.779 C 16.155 16.636,16.530 16.294,16.696 16.020 C 16.758 15.917,16.848 15.732,16.896 15.608 L 16.983 15.383 16.983 10.000 L 16.983 4.617 16.896 4.392 C 16.761 4.046,16.606 3.813,16.345 3.570 C 16.062 3.304,15.797 3.155,15.447 3.066 C 15.196 3.002,15.063 3.000,10.003 3.003 C 5.807 3.005,4.778 3.014,4.617 3.050 M15.000 7.790 L 15.000 10.580 14.275 9.862 C 13.459 9.053,13.403 9.017,12.983 9.017 C 12.568 9.017,12.551 9.030,11.054 10.528 L 9.726 11.858 8.438 11.427 C 6.796 10.878,7.022 10.876,5.875 11.447 C 5.411 11.678,5.024 11.867,5.015 11.867 C 5.007 11.867,5.000 10.322,5.000 8.433 L 5.000 5.000 10.000 5.000 L 15.000 5.000 15.000 7.790 M7.150 6.046 C 6.751 6.144,6.335 6.469,6.167 6.816 C 5.948 7.269,5.949 7.730,6.170 8.191 C 6.268 8.395,6.605 8.732,6.809 8.830 C 7.430 9.128,8.079 9.025,8.552 8.552 C 9.131 7.973,9.150 7.092,8.597 6.487 C 8.242 6.098,7.662 5.922,7.150 6.046 " fill="#1A1C1F" stroke="none" fill-rule="evenodd"></path></svg>
